X: 216
T: Bana Bir Kerre Yan Baktı
C: Lavtacı Hristo
O: Turkey
F: http://compmusic.upf.edu/node/140
N: huzzam--kanto--aksak--bana_bir--lavtaci_hristo
N: makam= huzzam
N: form= kanto
N: usul= aksak = 9/8
M: 9/8
L: 1/16
K: C _1/4B _3/4e ^3/4f 
Q: 1/4=162
%%MIDI tuningsystem comma53
g3f e2g2 f2e2 d4 B2 | d3cB2 A2B2 c2d2 e2f2  | \
w:  ARANAĞME  |   | 
g3f e2g2 f2e2 d4 B2 | 
w:   | 
d2 c2c2 B2B8z2  | g3f e2g2 f2e2 d4 B2 | \
w:   |  ARANAĞME  | 
d3cB2 A2B2 c2d2 e2f2  | 
w:   | 
g3f e2g2 f2e2 d4 B2 | d2 c2c2 B2B4de dcBc  | \
w:   |   | 
d4 B2c2 d4 d6 | 
w:  *  Ba na  bir  ker  | 
d4d2 e2d2 c2B6  | a2g2 g3f f2e2 d2e2 g2 | \
w:  re  yan  *  bak *  tı    |  Ah  *  kal bi mi  *  yak  | 
f2 e2e2 d2d4de dcBA  | 
w:  tı  *  yık *  tı   SAZ  | 
G4 B2c2 d4 d6 | d4d2 e2d2 c2B6  | a2g2 g3f f2e2 d2e2 g2 | \
w:  *  Ba na  bir  ker  |  re  yan  *  bak *  tı    |  Ah  *  al bi mi  *  yak  | 
f2 e2e2 d2d4de dcBc  | 
w:  tı  *  yık *  tı   SAZ  | 
d4 f2g2 g3f g6 | g3fe2 g2f2 e2f4z2  | \
w:  *  Se ve rim   |  göz *  be be ği ni    | 
d2c2 c2B2 B4 g2f2 e2 | 
w:  Göz *  le ri  â hû   | 
d2 c2c2 B2B4f2 g4  | d4 f2g2 g3f g6 | \
w:  *  *  me le ğim  a man    |  *  Se ve rim   | 
g3fe2 g2f2 e2f4z2  | 
w:  göz *  be be ği ni    | 
d2c2 c2B2 B4 g2f2 e2 | d2 c2c2 B2B4bc' b^aga  | \
w:  Göz *  le ri  â hû   |  *  *  me le ğim   SAZ  | 
b4 ^a2b2 b8-b2 | 
w:  *  Â şı kım   | 
^a2 b2c'4b2 a2g4z2  | a2g2 g2f2 f2e2 d2e2 g2 | \
w:  ben  *  sa na   |  ah  *  *  *  *  *  *  *  ne   | 
f2 e2e2 d2d4bc' b^aga  | 
w:  ça *  *  *  re   SAZ  | 
b4 ^a2b2 b8-b2 | ^a2 b2c'4b2 a2g4z2  | \
w:  *  Â şı kım   |  ben  *  sa na   | 
a2g2 g2f2 f2e2 d2e2 g2 | 
w:  ah  *  *  *  *  *  *  *  ne   | 
f2 e2e2 d2d4de dcBc  | d4 f2g2 g3f g6 | \
w:  ça *  *  *  re   SAZ  |  *  Se ve rim   | 
g3fe2 g2f2 e2f4z2  | 
w:  göz *  be be ği ni    | 
d2c2 c2B2 B4 g2f2 e2 | d2 c2c2 B2B4f2 g4  | \
w:  Göz *  le ri  â hû   |  *  *  me le ğim  a man    | 
d4 f2g2 g3f g6 | 
w:  *  Se ve rim   | 
g3fe2 g2f2 e2f4z2  | d2c2 c2B2 B4 g2f2 e2 | \
w:  göz *  be be ği ni    |  Göz *  le ri  â hû   | 
d2 c2c2 B2B4|
w:  *  *  me le ğim    | 


